X: 6
P: Taivas on sininen ja valkoinen
O: Trad Finland
Z: John Chambers <jc@trillian.mit.edu>
M: 2/4
L: 1/8
K: Am
|: "Am"A2 Ac | "Dm"ee ed | "E7"cB A^G | "Am"A2 cd |  "Am"e2 e2 | "Dm(G)"f2 ed | "E7(C)"e4 | "E7"e4 \
:: "Am"e2 e2 | "Dm(F)"b3 a | "G7"gf ed | "C"e2 AB |  "Dm"cd ed | "E7"c2 B2 | "Am"A4 | A4 :|
